public/Mail.svg

<svg width="50" height="50" viewBox="0 0 50 50" fill="none" xmlns="http://www.w3.org/2000/svg">
<g clip-path="url(#clip0_150_108)">
<path d="M46.4285 7.14258H3.57143C2.62423 7.14258 1.71582 7.51885 1.04605 8.18862C0.376275 8.85839 0 9.76681 0 10.714V39.2854C0 40.2326 0.376275 41.1411 1.04605 41.8107C1.71582 42.4806 2.62423 42.8569 3.57143 42.8569H46.4285C47.3758 42.8569 48.2842 42.4806 48.954 41.8107C49.6237 41.1411 50 40.2326 50 39.2854V10.714C50 9.76681 49.6237 8.85839 48.954 8.18862C48.2842 7.51885 47.3758 7.14258 46.4285 7.14258ZM42.5 10.714L25 22.8211L7.5 10.714H42.5ZM3.57143 39.2854V12.339L23.9822 26.4641C24.281 26.6714 24.6362 26.7826 25 26.7826C25.3638 26.7826 25.719 26.6714 26.0178 26.4641L46.4285 12.339V39.2854H3.57143Z" fill="#1096E1"/>
</g>
<defs>
<clipPath id="clip0_150_108">
<rect width="50" height="50" fill="white"/>
</clipPath>
</defs>
</svg>

<svg xmlns="http://www.w3.org/2000/svg" width="50" height="50" fill="none" xmlns:v="https://vecta.io/nano"><g clip-path="url(#A)"><path d="M46.429 7.143H3.571A3.57 3.57 0 0 0 0 10.714v28.571a3.57 3.57 0 0 0 3.571 3.572h42.857A3.57 3.57 0 0 0 50 39.285V10.714a3.57 3.57 0 0 0-3.572-3.571zM42.5 10.714L25 22.821 7.5 10.714h35zM3.571 39.285V12.339l20.411 14.125c.299.207.654.319 1.018.319s.719-.111 1.018-.319l20.411-14.125v26.946H3.571z" fill="#1096e1"/></g><defs><clipPath id="A"><path fill="#fff" d="M0 0h50v50H0z"/></clipPath></defs></svg>
